svg/u1f4ed.svg

<svg viewBox="0 0 128 128" xmlns="http://www.w3.org/2000/svg">
  <g>
    <rect height="39.83" fill="#C87D5E" width="18.31" x="63.13" y="84.17"/>
    <path d="M81.45,94.23c-1.64-2.66-3.81-4.93-6.55-6.41c-1.7-0.92-3.58-1.45-5.49-1.64h-3.19 c-1.04,0.1-2.08,0.3-3.08,0.6v20.13c0.89-1.36,2.37-2.34,3.97-2.72c2.79-0.65,5.75,0.42,8.01,2.17c2.26,1.75,3.95,4.13,5.6,6.46 c0.25,0.35,0.49,0.69,0.74,1.04V94.23z" fill="#874D36"/>
    <path d="M97.55,25.09H28.94c0,0,23.58,2.89,23.58,22.78l0.12,50.48h66.52c2.67,0,4.83-2.16,4.83-4.83 V51.54C124,36.93,112.16,25.09,97.55,25.09z" fill="#1976D2"/>
    <ellipse cx="74.21" cy="54.06" rx="8.14" ry="9.16" fill="#0D47A1"/>
    <path d="M107.81,50.04l-37.63,0.03v8.17h28.25v14.08c0,3.25,1.41,3.63,7.55,3.63 c6.14,0,7.94-0.38,7.94-3.63V56.15C113.91,52.78,111.18,50.04,107.81,50.04z" fill="#0D47A1"/>
    <path d="M110.44,46.87L72.81,46.9v8.17h28.25v14.08c0,3.25,1.41,3.63,7.55,3.63c6.14,0,7.94-0.38,7.94-3.63 V52.98C116.55,49.61,113.81,46.87,110.44,46.87z" fill="#C62828"/>
    <path d="M112.76,46.87L71.2,46.9v8.17h32.18v14.08c0,3.25,1.41,3.63,7.55,3.63c6.14,0,7.94-0.38,7.94-3.63 V52.98C118.86,49.61,116.13,46.87,112.76,46.87z" fill="#F44336"/>
    <path d="M111.98,52.15c-1.99-0.07-20.01-1.37-23.39-1.6c-4.09-0.28-4.51-2.64-0.79-2.64h24.37 C116.1,47.91,116.31,52.3,111.98,52.15z" fill="#FF7555"/>
    <path d="M72.74,42.44l0.07,18.31c0,0-1.29,0-3.48,0c-4.05,0-7.33-4.1-7.33-9.16s3.28-9.16,7.33-9.16 C73.37,42.44,72.74,42.44,72.74,42.44z" fill="#82AEC0"/>
    <ellipse cx="73.4" cy="51.59" rx="7.33" ry="9.16" fill="#E0E0E0"/>
    <path d="M69.02,51.86c0.44,0.22,0.97-0.02,1.35-0.34c1.16-0.97,1.6-2.57,2.67-3.63 c0.94-0.94,2.37-1.86,1.25-3.25c-0.81-1-2.22-0.9-3.25-0.37C68.55,45.53,66.79,50.74,69.02,51.86z" fill="#FFFFFF"/>
    <path d="M28.94,28.97c11.86,0,21.51,8.02,21.51,17.89v47.6H7.43v-47.6C7.43,36.99,17.08,28.97,28.94,28.97" fill="#4E342E"/>
    <path d="M28.94,29.22c11.77,0,21.35,7.96,21.35,17.75V94.2H7.6V46.97C7.6,37.19,17.17,29.22,28.94,29.22 M28.94,25.09L28.94,25.09C13.81,25.09,4,35.28,4,47.86v48.35c0,1.17,0.95,2.13,2.13,2.13h48.09c1.17,0,2.13-0.95,2.13-2.13V47.86 C56.34,35.28,44.07,25.09,28.94,25.09L28.94,25.09z" fill="#4FC3F7"/>
  </g>
</svg>

<svg viewBox="0 0 128 128" xmlns="http://www.w3.org/2000/svg">
  <defs/>
  <path d="M63.13,84.17 L81.44,84.17 L81.44,124 L63.13,124 L63.13,84.17 Z" fill="#C87D5E"/>
  <path d="M81.45,94.23 C79.81,91.57 77.64,89.3 74.9,87.82 C73.2,86.9 71.32,86.37 69.41,86.18 L66.22,86.18 C65.18,86.28 64.14,86.48 63.14,86.78 L63.14,106.91 C64.03,105.55 65.51,104.57 67.11,104.19 C69.9,103.54 72.86,104.61 75.12,106.36 C77.38,108.11 79.07,110.49 80.72,112.82 C80.97,113.17 81.21,113.51 81.46,113.86 L81.46,94.23 Z" fill="#874D36"/>
  <path d="M97.55,25.09 L28.94,25.09 C28.94,25.09 52.52,27.98 52.52,47.87 L52.64,98.35 L119.16,98.35 C121.83,98.35 123.99,96.19 123.99,93.52 L123.99,51.54 C124,36.93 112.16,25.09 97.55,25.09 Z" fill="#1976D2"/>
  <path d="M82.35,54.06 A8.14 9.16 0 1 1 66.07,54.06 A8.14 9.16 0 1 1 82.35,54.06 Z" fill="#0D47A1"/>
  <path d="M107.81,50.04 L70.18,50.07 L70.18,58.24 L98.43,58.24 L98.43,72.32 C98.43,75.57 99.84,75.95 105.98,75.95 C112.12,75.95 113.92,75.57 113.92,72.32 L113.92,56.15 C113.91,52.78 111.18,50.04 107.81,50.04 Z" fill="#0D47A1"/>
  <path d="M110.44,46.87 L72.81,46.9 L72.81,55.07 L101.06,55.07 L101.06,69.15 C101.06,72.4 102.47,72.78 108.61,72.78 C114.75,72.78 116.55,72.4 116.55,69.15 L116.55,52.98 C116.55,49.61 113.81,46.87 110.44,46.87 Z" fill="#C62828"/>
  <path d="M112.76,46.87 L71.2,46.9 L71.2,55.07 L103.38,55.07 L103.38,69.15 C103.38,72.4 104.79,72.78 110.93,72.78 C117.07,72.78 118.87,72.4 118.87,69.15 L118.87,52.98 C118.86,49.61 116.13,46.87 112.76,46.87 Z" fill="#F44336"/>
  <path d="M111.98,52.15 C109.99,52.08 91.97,50.78 88.59,50.55 C84.5,50.27 84.08,47.91 87.8,47.91 L112.17,47.91 C116.1,47.91 116.31,52.3 111.98,52.15 Z" fill="#FF7555"/>
  <path d="M72.74,42.44 L72.81,60.75 C72.81,60.75 71.52,60.75 69.33,60.75 C65.28,60.75 62,56.65 62,51.59 C62,46.53 65.28,42.43 69.33,42.43 C73.37,42.44 72.74,42.44 72.74,42.44 Z" fill="#82AEC0"/>
  <path d="M80.73,51.59 A7.33 9.16 0 1 1 66.07,51.59 A7.33 9.16 0 1 1 80.73,51.59 Z" fill="#E0E0E0"/>
  <path d="M69.02,51.86 C69.46,52.08 69.99,51.84 70.37,51.52 C71.53,50.55 71.97,48.95 73.04,47.89 C73.98,46.95 75.41,46.03 74.29,44.64 C73.48,43.64 72.07,43.74 71.04,44.27 C68.55,45.53 66.79,50.74 69.02,51.86 Z" fill="#FFFFFF"/>
  <path d="M28.94,28.97 C40.8,28.97 50.45,36.99 50.45,46.86 L50.45,94.46 L7.43,94.46 L7.43,46.86 C7.43,36.99 17.08,28.97 28.94,28.97" fill="#4E342E"/>
  <path d="M28.94,29.22 C40.71,29.22 50.29,37.18 50.29,46.97 L50.29,94.2 L7.6,94.2 L7.6,46.97 C7.6,37.19 17.17,29.22 28.94,29.22 M28.94,25.09 L28.94,25.09 C13.81,25.09 4,35.28 4,47.86 L4,96.21 C4,97.38 4.95,98.34 6.13,98.34 L54.22,98.34 C55.39,98.34 56.35,97.39 56.35,96.21 L56.35,47.86 C56.34,35.28 44.07,25.09 28.94,25.09 L28.94,25.09 Z" fill="#4FC3F7"/>
</svg>
